packages/ui-icons/svg/Solid/crop.svg

<svg viewBox="0 0 1920 1920" xmlns="http://www.w3.org/2000/svg">
    <path d="M400 0h160v1360h1360v160H400V0zM266.667 400H0v160h266.667V400zm426.666 0v160H1360v666.67h160V400H693.333zM1520 1653.33h-160V1920h160v-266.67z" fill-rule="evenodd" clip-rule="evenodd"/>
</svg>

<svg viewBox="0 0 1920 1920" xmlns="http://www.w3.org/2000/svg" version="1.1">
    <path d="M400 0H560V1360H1920V1520H400V0zM266.667 400H0V560H266.667V400z M693.333 400V560H1360V1226.67H1520V400H693.333zM1520 1653.33H1360V1920H1520V1653.33z" fill-rule="evenodd" clip-rule="evenodd" stroke="none" stroke-width="1"/>
</svg>
